X: 25476
T: Marchioness Of Huntly, The
R: strathspey
M: 4/4
K: Gminor
|:(~[B,3/2D3/2]E/) (F>D) E<G TF2|(G<c)~c>d (e/d/).c/.B/ (A/G/).F/.E/|(D>E)(FD) EG TF2|(~G>c) (B/A/)(G/F/) [B2F2D2][B2F2D2]:|
(d<f)(B>f) ~d>f (e/d/).c/.B/|A>cF>c AcFe|(d<f)(B>f) ~d>f (e/d/).c/.B/|(A/B/)c/d/ (B/A/)G/F/ TB2(B>e)|
(d<f)(B>d) d/f/g/a/ Hbz/B/|(Gc)(~cd) (e/d/).c/.B/ (A/G/).F/.E/|[B,3/2D3/2]E/F>D E<G TF2|(~G>c) (B/A/)(G/F/) [B2F2D2][B2F2D2]||

